wp-content/plugins/one-click-demo-import/assets/images/icons/lock.svg

<svg width="14" height="17" viewBox="0 0 14 17" fill="none" xmlns="http://www.w3.org/2000/svg">
<path d="M11.9375 7.375H11.7812V5.90625C11.7812 3.36058 9.67067 1.25 7.125 1.25C4.54985 1.25 2.46875 3.36272 2.46875 5.90625V7.375H2.3125C1.29132 7.375 0.5 8.20723 0.5 9.1875V14.4375C0.5 15.4519 1.29808 16.25 2.3125 16.25H11.9375C12.9178 16.25 13.75 15.4587 13.75 14.4375V9.1875C13.75 8.20042 12.9246 7.375 11.9375 7.375ZM5.65625 7.375V5.90625C5.65625 5.11146 6.31189 4.4375 7.125 4.4375C7.91526 4.4375 8.59375 5.11599 8.59375 5.90625V7.375H5.65625Z" fill="#23282D" stroke="white"/>
</svg>

<svg xmlns="http://www.w3.org/2000/svg" width="14" height="17" fill="none"><path fill="#23282D" stroke="#fff" d="M11.938 7.375h-.157V5.906c0-2.545-2.11-4.656-4.656-4.656-2.575 0-4.656 2.113-4.656 4.656v1.469h-.156A1.813 1.813 0 0 0 .5 9.188v5.25c0 1.014.798 1.812 1.813 1.812h9.625c.98 0 1.812-.791 1.812-1.812v-5.25a1.83 1.83 0 0 0-1.812-1.813Zm-6.282 0V5.906c0-.795.656-1.468 1.469-1.468.79 0 1.469.678 1.469 1.468v1.469z"/></svg>
